X: 130028
M: 6/8
L: 1/8
K: G
E |\
vD2vG GAB | vc2vA ud2uc | B2g dcB | A2E GFE |\
|: uB |\
vd2vB gfe | d2g B2d | c2a B2g | A2d cBc |\
d2B gfe | d2g B2d | c2a Adc | B2G G2 :|


